"BUTTS".postln;

/*(
{ var ampOsc;
    ampOsc = SinOsc.kr(0.5, 0, 0.5, 0.5);
    SinOsc.ar(440, 0, ampOsc);
}.play;
)

{ Pan2.ar(PinkNoise.ar(0.2), SinOsc.kr(0.5)) }.play;

{ Mix.new([SinOsc.ar(440, 0, 0.2), Saw.ar(660, 0.2)]).postln }.play;

(
{
    var a, b;
    a = [SinOsc.ar(440, 0, 0.2), Saw.ar(662, 0.2)];
    b = [SinOsc.ar(442, 0, 0.2), Saw.ar(660, 0.2)];
    a + b
}.play;
)


(
    var n = 80;
    { Mix.fill(n, { |k| SinOsc.ar(500 + (10 *k), 0, 1/n) }) }.play;
)*/